static/img/kroki/1c845d044a48bcd80158c660c4c2aefe.svg

<?xml version="1.0" encoding="us-ascii" standalone="no"?><svg xmlns="http://www.w3.org/2000/svg" xmlns:xlink="http://www.w3.org/1999/xlink" contentStyleType="text/css" height="374px" preserveAspectRatio="none" style="width:475px;height:374px;" version="1.1" viewBox="0 0 475 374" width="475px" zoomAndPan="magnify"><defs/><g><!--class azure_cosmos_db_postgresql_cluster_role--><g id="elem_azure_cosmos_db_postgresql_cluster_role"><rect codeLine="23" fill="#3D176E" height="39.7891" id="azure_cosmos_db_postgresql_cluster_role" rx="2.5" ry="2.5" style="stroke:#000D19;stroke-width:0.5;" width="387" x="7" y="328.58"/><ellipse cx="22" cy="348.4745" fill="#ADD1B2" rx="11" ry="11" style="stroke:#181818;stroke-width:1.0;"/><path d="M24.9688,354.1152 Q24.3906,354.412 23.75,354.5527 Q23.1094,354.7089 22.4063,354.7089 Q19.9063,354.7089 18.5781,353.0683 Q17.2656,351.412 17.2656,348.287 Q17.2656,345.162 18.5781,343.5058 Q19.9063,341.8495 22.4063,341.8495 Q23.1094,341.8495 23.75,342.0058 Q24.4063,342.162 24.9688,342.4589 L24.9688,345.1777 Q24.3438,344.5995 23.75,344.3339 Q23.1563,344.0527 22.5313,344.0527 Q21.1875,344.0527 20.5,345.1308 Q19.8125,346.1933 19.8125,348.287 Q19.8125,350.3808 20.5,351.4589 Q21.1875,352.5214 22.5313,352.5214 Q23.1563,352.5214 23.75,352.2558 Q24.3438,351.9745 24.9688,351.3964 L24.9688,354.1152 Z " fill="#000000"/><text fill="#D9B8FF" font-family="Helvetica" font-size="17" lengthAdjust="spacing" textLength="345" x="41" y="354.3598">azure_cosmos_db_postgresql_cluster_role</text></g><!--class azure_proxy_resource--><g id="elem_azure_proxy_resource"><rect codeLine="26" fill="#3D176E" height="39.7891" id="azure_proxy_resource" rx="2.5" ry="2.5" style="stroke:#000D19;stroke-width:0.5;" width="224" x="9.5" y="167.79"/><ellipse cx="24.5" cy="187.6845" fill="#ADD1B2" rx="11" ry="11" style="stroke:#181818;stroke-width:1.0;"/><path d="M27.4688,193.3252 Q26.8906,193.622 26.25,193.7627 Q25.6094,193.9189 24.9063,193.9189 Q22.4063,193.9189 21.0781,192.2783 Q19.7656,190.622 19.7656,187.497 Q19.7656,184.372 21.0781,182.7158 Q22.4063,181.0595 24.9063,181.0595 Q25.6094,181.0595 26.25,181.2158 Q26.9063,181.372 27.4688,181.6689 L27.4688,184.3877 Q26.8438,183.8095 26.25,183.5439 Q25.6563,183.2627 25.0313,183.2627 Q23.6875,183.2627 23,184.3408 Q22.3125,185.4033 22.3125,187.497 Q22.3125,189.5908 23,190.6689 Q23.6875,191.7314 25.0313,191.7314 Q25.6563,191.7314 26.25,191.4658 Q26.8438,191.1845 27.4688,190.6064 L27.4688,193.3252 Z " fill="#000000"/><text fill="#D9B8FF" font-family="Helvetica" font-size="17" lengthAdjust="spacing" textLength="182" x="43.5" y="193.5698">azure_proxy_resource</text></g><!--class microsoft_resource--><g id="elem_microsoft_resource"><rect codeLine="29" fill="#3D176E" height="39.7891" id="microsoft_resource" rx="2.5" ry="2.5" style="stroke:#000D19;stroke-width:0.5;" width="200" x="268.5" y="167.79"/><ellipse cx="283.5" cy="187.6845" fill="#ADD1B2" rx="11" ry="11" style="stroke:#181818;stroke-width:1.0;"/><path d="M286.4688,193.3252 Q285.8906,193.622 285.25,193.7627 Q284.6094,193.9189 283.9063,193.9189 Q281.4063,193.9189 280.0781,192.2783 Q278.7656,190.622 278.7656,187.497 Q278.7656,184.372 280.0781,182.7158 Q281.4063,181.0595 283.9063,181.0595 Q284.6094,181.0595 285.25,181.2158 Q285.9063,181.372 286.4688,181.6689 L286.4688,184.3877 Q285.8438,183.8095 285.25,183.5439 Q284.6563,183.2627 284.0313,183.2627 Q282.6875,183.2627 282,184.3408 Q281.3125,185.4033 281.3125,187.497 Q281.3125,189.5908 282,190.6689 Q282.6875,191.7314 284.0313,191.7314 Q284.6563,191.7314 285.25,191.4658 Q285.8438,191.1845 286.4688,190.6064 L286.4688,193.3252 Z " fill="#000000"/><text fill="#D9B8FF" font-family="Helvetica" font-size="17" lengthAdjust="spacing" textLength="158" x="302.5" y="193.5698">microsoft_resource</text></g><!--class resource--><g id="elem_resource"><rect codeLine="32" fill="#3D176E" height="39.7891" id="resource" rx="2.5" ry="2.5" style="stroke:#000D19;stroke-width:0.5;" width="113" x="312" y="7"/><ellipse cx="327" cy="26.8945" fill="#ADD1B2" rx="11" ry="11" style="stroke:#181818;stroke-width:1.0;"/><path d="M329.9688,32.5352 Q329.3906,32.832 328.75,32.9727 Q328.1094,33.1289 327.4063,33.1289 Q324.9063,33.1289 323.5781,31.4883 Q322.2656,29.832 322.2656,26.707 Q322.2656,23.582 323.5781,21.9258 Q324.9063,20.2695 327.4063,20.2695 Q328.1094,20.2695 328.75,20.4258 Q329.4063,20.582 329.9688,20.8789 L329.9688,23.5977 Q329.3438,23.0195 328.75,22.7539 Q328.1563,22.4727 327.5313,22.4727 Q326.1875,22.4727 325.5,23.5508 Q324.8125,24.6133 324.8125,26.707 Q324.8125,28.8008 325.5,29.8789 Q326.1875,30.9414 327.5313,30.9414 Q328.1563,30.9414 328.75,30.6758 Q329.3438,30.3945 329.9688,29.8164 L329.9688,32.5352 Z " fill="#000000"/><text fill="#D9B8FF" font-family="Helvetica" font-size="17" lengthAdjust="spacing" textLength="71" x="346" y="32.7798">resource</text></g><!--reverse link azure_proxy_resource to azure_cosmos_db_postgresql_cluster_role--><g id="link_azure_proxy_resource_azure_cosmos_db_postgresql_cluster_role"><path codeLine="35" d="M139.046,223.9566 C154.226,254.4766 175.73,297.69 190.94,328.25 " fill="none" id="azure_proxy_resource-backto-azure_cosmos_db_postgresql_cluster_role" style="stroke:#FFAF37;stroke-width:2.0;"/><polygon fill="none" points="131.03,207.84,133.6738,226.6286,144.4182,221.2845,131.03,207.84" style="stroke:#FFAF37;stroke-width:2.0;"/></g><!--reverse link microsoft_resource to azure_cosmos_db_postgresql_cluster_role--><g id="link_microsoft_resource_azure_cosmos_db_postgresql_cluster_role"><path codeLine="36" d="M335.1567,220.2023 C302.8567,250.7223 253.17,297.69 220.84,328.25 " fill="none" id="microsoft_resource-backto-azure_cosmos_db_postgresql_cluster_role" style="stroke:#FFAF37;stroke-width:2.0;"/><polygon fill="none" points="348.24,207.84,331.0359,215.8412,339.2775,224.5634,348.24,207.84" style="stroke:#FFAF37;stroke-width:2.0;"/></g><!--reverse link resource to microsoft_resource--><g id="link_resource_microsoft_resource"><path codeLine="37" d="M368.5,65.05 C368.5,95.57 368.5,136.9 368.5,167.46 " fill="none" id="resource-backto-microsoft_resource" style="stroke:#FFAF37;stroke-width:2.0;"/><polygon fill="none" points="368.5,47.05,362.5,65.05,374.5,65.05,368.5,47.05" style="stroke:#FFAF37;stroke-width:2.0;"/></g><!--SRC=[bP1FJm8n4CNl-ocQS2O1YGA95oGnUY56l6-wxNHfQ3lhj2k2-jrbHKtt3w3NURzvxysij0G6jWXRPi5cG3xnQ-qAJjoo6H5kvcYGM4yfhaRZfdYBBfm55jm2kmFp0a4BtYIULbgi7NZFBYBfXejrJbWwUR0Fn9tVI-12HCqDztuM0kci312LaTDiebIJR9hsHd8ule8MXYI1lf71O227qoPoDkhatR_4Kk-03UEdBJ10gsOhueiwsR8YefAjGt_qenqVk9JQvUmocZqUEf43gisNAovnKz6A6n_7-0046BO5p5jNmNGYrRWJlZy69w9w7UExaY0Lw2twL6PfWJxa1FxPfCAKbKzAQ82z9Sb7RQKWVDscUn9B4ZNTQa7eKOLEjJxhzBf-x_VxVssMTCJzpw2nrlPBFW40]--></g></svg>

<svg xmlns="http://www.w3.org/2000/svg" width="475" height="374" viewBox="0 0 475 374"><rect width="387" height="39.789" x="7" y="328.58" fill="#3D176E" rx="2.5" ry="2.5" style="stroke:#000d19;stroke-width:.5"/><circle cx="22" cy="348.474" r="11" fill="#ADD1B2" style="stroke:#181818;stroke-width:1"/><path d="M24.969 354.115q-.578.297-1.219.438-.64.156-1.344.156-2.5 0-3.828-1.64-1.312-1.657-1.312-4.782t1.312-4.781q1.328-1.656 3.828-1.656.703 0 1.344.156.656.156 1.219.453v2.719q-.625-.579-1.219-.844-.594-.281-1.219-.281-1.343 0-2.031 1.078-.687 1.062-.687 3.156t.687 3.172q.688 1.062 2.031 1.062.625 0 1.219-.265.594-.281 1.219-.86z"/><text x="41" y="354.36" fill="#D9B8FF" font-family="Helvetica" font-size="17" textLength="345">azure_cosmos_db_postgresql_cluster_role</text><rect width="224" height="39.789" x="9.5" y="167.79" fill="#3D176E" rx="2.5" ry="2.5" style="stroke:#000d19;stroke-width:.5"/><circle cx="24.5" cy="187.685" r="11" fill="#ADD1B2" style="stroke:#181818;stroke-width:1"/><path d="M27.469 193.325q-.578.297-1.219.438-.64.156-1.344.156-2.5 0-3.828-1.64-1.312-1.657-1.312-4.782t1.312-4.781q1.328-1.656 3.828-1.656.703 0 1.344.156.656.156 1.219.453v2.719q-.625-.578-1.219-.844-.594-.281-1.219-.281-1.343 0-2.031 1.078-.687 1.062-.687 3.156t.687 3.172q.688 1.062 2.031 1.062.625 0 1.219-.265.594-.281 1.219-.86z"/><text x="43.5" y="193.57" fill="#D9B8FF" font-family="Helvetica" font-size="17" textLength="182">azure_proxy_resource</text><rect width="200" height="39.789" x="268.5" y="167.79" fill="#3D176E" rx="2.5" ry="2.5" style="stroke:#000d19;stroke-width:.5"/><circle cx="283.5" cy="187.685" r="11" fill="#ADD1B2" style="stroke:#181818;stroke-width:1"/><path d="M286.469 193.325q-.578.297-1.219.438-.64.156-1.344.156-2.5 0-3.828-1.64-1.312-1.657-1.312-4.782t1.312-4.781q1.328-1.656 3.828-1.656.703 0 1.344.156.656.156 1.219.453v2.719q-.625-.578-1.219-.844-.594-.281-1.219-.281-1.344 0-2.031 1.078-.687 1.062-.687 3.156t.687 3.172q.688 1.062 2.031 1.062.625 0 1.219-.265.594-.281 1.219-.86z"/><text x="302.5" y="193.57" fill="#D9B8FF" font-family="Helvetica" font-size="17" textLength="158">microsoft_resource</text><rect width="113" height="39.789" x="312" y="7" fill="#3D176E" rx="2.5" ry="2.5" style="stroke:#000d19;stroke-width:.5"/><circle cx="327" cy="26.895" r="11" fill="#ADD1B2" style="stroke:#181818;stroke-width:1"/><path d="M329.969 32.535q-.578.297-1.219.438-.64.156-1.344.156-2.5 0-3.828-1.64-1.312-1.657-1.312-4.782t1.312-4.781q1.328-1.656 3.828-1.656.703 0 1.344.156.656.156 1.219.453v2.719q-.625-.578-1.219-.844-.594-.281-1.219-.281-1.344 0-2.031 1.078-.687 1.062-.687 3.156t.687 3.172q.688 1.062 2.031 1.062.625 0 1.219-.265.594-.281 1.219-.86z"/><text x="346" y="32.78" fill="#D9B8FF" font-family="Helvetica" font-size="17" textLength="71">resource</text><g fill="none"><path d="M139.046 223.957c15.18 30.52 36.684 73.733 51.894 104.293" style="stroke:#ffaf37;stroke-width:2"/><path d="m131.03 207.84 2.644 18.789 10.744-5.344z" style="stroke:#ffaf37;stroke-width:2"/></g><g fill="none"><path d="M335.157 220.202c-32.3 30.52-81.987 77.488-114.317 108.048" style="stroke:#ffaf37;stroke-width:2"/><path d="m348.24 207.84-17.204 8.001 8.241 8.722z" style="stroke:#ffaf37;stroke-width:2"/></g><path fill="none" d="M368.5 65.05v102.41m0-120.41-6 18h12z" style="stroke:#ffaf37;stroke-width:2"/></svg>
